X:373
T:J\"orgen's Jig
R:jig
C:J\"orgen S\"alde, Sweden
Z:id:hn-jig-373
M:6/8
L:1/8
K:Ador
AcA BAG|Ace gec|dff ecA|B/c/dB cBG|
AcA BAG|Ace gec|dff ecA|1 BAG A2G:|2 BAG Ace||
|:~a3 ba^g|aec Ace|deg f/g/af|gfe deg|
~a3 ba^g|aec Ace|deg Bcd|1 cAB Ace:|2 cAB A2G||

